assets/images/ico_gnb_my_active.svg

<svg width="24" height="24" viewBox="0 0 24 24" fill="none" xmlns="http://www.w3.org/2000/svg">
<path d="M6.87872 8.08049C6.87872 9.93164 7.82398 11.5536 9.24516 12.4891C6.13188 13.6483 3.9 16.6999 3.9 20.2749C3.9 20.7635 4.28302 21.1588 4.76596 21.1588C5.24889 21.1588 5.63191 20.7635 5.63191 20.2749C5.63191 16.6783 8.49144 13.7551 12 13.7551C15.5086 13.7551 18.3681 16.6783 18.3681 20.2749C18.3681 20.7635 18.7511 21.1588 19.234 21.1588C19.717 21.1588 20.1 20.7635 20.1 20.2749C20.1 16.6999 17.8681 13.6483 14.7548 12.4891C16.176 11.5536 17.1213 9.93164 17.1213 8.08049C17.1213 5.19661 14.8234 2.84141 12 2.84141C9.17664 2.84141 6.87872 5.19661 6.87872 8.08049ZM12 4.60926C13.866 4.60926 15.3894 6.16499 15.3894 8.08049C15.3894 9.99598 13.866 11.5517 12 11.5517C10.134 11.5517 8.61064 9.99598 8.61064 8.08049C8.61064 6.16499 10.134 4.60926 12 4.60926Z" fill="#4FF3FF" stroke="#4FF3FF" stroke-width="0.2"/>
</svg>

<svg xmlns="http://www.w3.org/2000/svg" width="24" height="24" fill="none"><path fill="#4FF3FF" stroke="#4FF3FF" stroke-width=".2" d="M6.879 8.08c0 1.852.945 3.474 2.366 4.41C6.132 13.647 3.9 16.7 3.9 20.274c0 .489.383.884.866.884a.872.872 0 0 0 .866-.884c0-3.597 2.86-6.52 6.368-6.52 3.509 0 6.368 2.923 6.368 6.52 0 .489.383.884.866.884a.872.872 0 0 0 .866-.884c0-3.575-2.232-6.627-5.345-7.786A5.266 5.266 0 0 0 17.12 8.08c0-2.883-2.298-5.239-5.121-5.239-2.823 0-5.121 2.356-5.121 5.24ZM12 4.61c1.866 0 3.39 1.555 3.39 3.47 0 1.916-1.524 3.472-3.39 3.472S8.61 9.996 8.61 8.08c0-1.915 1.524-3.47 3.39-3.47Z"/></svg>
